!!!!SEGMENT: Snf0125-In_exitu_Israel_I.krn
!!!id: Snf0125
!!!AGN: Motet
!!!voices: 4
!!!COM: Ludwig Senfl
!!!OTL: In exitu Israel I
**kern	**text	**kern	**text	**kern	**text	**kern	**text
*part4	*part4	*part3	*part3	*part2	*part2	*part1	*part1
*staff4	*staff4	*staff3	*staff3	*staff2	*staff2	*staff1	*staff1
*I"Bassus	*	*I"Tenor	*	*I"Altus	*	*I"Superius	*
*I'B	*	*I'T	*	*I'A	*	*I'S	*
*clefF4	*	*clefGv2	*	*clefGv2	*	*clefG2	*
*k[b-]	*	*k[b-]	*	*k[b-]	*	*k[b-]	*
*F:	*	*F:	*	*F:	*	*F:	*
*M2/1	*	*M2/1	*	*M2/1	*	*M2/1	*
*met(C|)	*	*met(C|)	*	*met(C|)	*	*met(C|)	*
!!section: Versus 1: In exitu Israel
!!!OMD: Versus 1: In exitu Israel
=1	=1	=1	=1	=1	=1	=1	=1
1D	In	1r	.	0r	.	0r	.
1F	.	1A	In	.	.	.	.
=2	=2	=2	=2	=2	=2	=2	=2
1.F	e-	1c	.	1r	.	1a	In
.	.	[1A	e-	1A	In	1cc	.
2F	-xi-	.	.	.	.	.	.
=3	=3	=3	=3	=3	=3	=3	=3
1F	-tu	2A]	.	1c	.	1.a	e-
.	.	2A	-xi-	.	.	.	.
[1D	Is-	1A	-tu	2r	.	.	.
.	.	.	.	[2f	e-	2a	-xi-
=4	=4	=4	=4	=4	=4	=4	=4
2D]	.	1r	.	2f]	.	1a	-tu
2D	-ra-	.	.	2f	-xi-	.	.
2D	-el	[1A	Is-	1d	-tu	[1f	Is-
[2F	de	.	.	.	.	.	.
=5	=5	=5	=5	=5	=5	=5	=5
2F]	.	2A]	.	1.d	Is-	2f]	.
2F	Ae-	2A	-ra-	.	.	2f	-ra-
1F	-gy-	1A	-el	.	.	1f	-el
.	.	.	.	2d	-ra-	.	.
=6	=6	=6	=6	=6	=6	=6	=6
1G	.	1B-y	de	1d	-el	2b-y	de
.	.	.	.	.	.	2g	Ae-
1F	.	1A	Ae-	2f	de	2a	-gy-
.	.	.	.	[2c	Ae-	4g	.
.	.	.	.	.	.	4f	.
=7	=7	=7	=7	=7	=7	=7	=7
2C	.	2G	-gy-	2c]	.	2e	.
2D	.	2F	.	2B-y	.	1f	.
1C	.	1G	.	1c	-gy-	.	.
.	.	.	.	.	.	2e	.
=8	=8	=8	=8	=8	=8	=8	=8
1D	-pto,	1F	-pto,	1A	-pto,	1f	-pto,
2r	.	2r	.	2r	.	2r	.
[2C	do-	[2G	do-	[2c	do-	[2e	do-
=9	=9	=9	=9	=9	=9	=9	=9
2C]	.	2G]	.	2c]	.	2e]	.
2C	-mus	2G	-mus	2c	-mus	2e	-mus
1C	Ja-	1G	Ja-	1c	Ja-	1g	Ja-
=10	=10	=10	=10	=10	=10	=10	=10
1F	-cob	1A	-cob	2c	-cob	2f	-cob
.	.	.	.	1A	de	1f	de
1D	de	1F	de	.	.	.	.
.	.	.	.	2B-y	.	4e	.
.	.	.	.	.	.	4d	.
=11	=11	=11	=11	=11	=11	=11	=11
1.C	po-	1.G	po-	1.c	po-	2.e	po-
.	.	.	.	.	.	4f	.
.	.	.	.	.	.	2g	.
2C	-pu-	2G	-pu-	2c	-pu-	2g	-pu-
=12	=12	=12	=12	=12	=12	=12	=12
1D	-lo	2D	-lo	2A	-lo	2f	-lo
.	.	2.F	bar-	2.A	bar-	2.a	bar-
2.AA	bar-	.	.	.	.	.	.
.	.	4G	.	4B-y	.	4g	.
.	.	2A	.	2c	.	2f	.
4BB-y	.	.	.	.	.	.	.
=13	=13	=13	=13	=13	=13	=13	=13
2C	.	2G	.	4c	.	2e	.
.	.	.	.	4B-y	.	.	.
2D	.	2F	.	4A	.	1d	.
.	.	.	.	4G	.	.	.
1AA	-ba-	1E	-ba-	1A	-ba-	.	.
.	.	.	.	.	.	2c#i	-ba-
=14	=14	=14	=14	=14	=14	=14	=14
00D	-ro,	00D	-ro,	00A	-ro,	00d	-ro,
=15||	=15||	=15||	=15||	=15||	=15||	=15||	=15||
*M2/1	*	*M2/1	*	*M2/1	*	*M2/1	*
*met(C|)	*	*met(C|)	*	*met(C|)	*	*met(C|)	*
!!section: Versus 3: Mare vidit
!!!OMD: Versus 3: Mare vidit
1A	Ma-	0r	.	1r	.	0r	.
1c	.	.	.	1A	Ma-	.	.
=16	=16	=16	=16	=16	=16	=16	=16
1A	-re	1A	Ma-	1c	.	1r	.
1F	vi-	1c	.	2A	-re,	1a	Ma-
.	.	.	.	[2f	ma-	.	.
=17	=17	=17	=17	=17	=17	=17	=17
1F	-dit,	2A	-re	2f]	.	1cc	.
.	.	1c	vi-	2f	-re	.	.
2r	.	.	.	1f	vi-	1a	-re,
[2F	ma-	2c	-dit,	.	.	.	.
=18	=18	=18	=18	=18	=18	=18	=18
2F]	.	1c	[ma-	1f	-dit	2r	.
2F	-re	.	.	.	.	1cc	ma-
1F	vi-	1A	-re	2r	.	.	.
.	.	.	.	2f	et	2cc	-re
=19	=19	=19	=19	=19	=19	=19	=19
1G	-dit	1B-y	vi-	2d	fu-	2b-y	vi-
.	.	.	.	2e	.	2g	-dit
1F	et	1A	.	2f	.	2a	et
.	.	.	.	[2c	.	4g	.
.	.	.	.	.	.	4f	.
=20	=20	=20	=20	=20	=20	=20	=20
2C	fu-	2G	-dit]	2c]	.	2e	.
2D	.	2F	et	2B-y	.	1f	fu-
1C	-git;	1G	fu-	1c	-git;	.	.
.	.	.	.	.	.	2e	.
=21	=21	=21	=21	=21	=21	=21	=21
2r	.	0F	-git;	2r	.	1f	-git;
1D	Jor-	.	.	2d	Jor-	.	.
.	.	.	.	1d	-da-	2r	.
2D	-da-	.	.	.	.	2a	Jor-
=22	=22	=22	=22	=22	=22	=22	=22
1F	.	2r	.	1c	.	1a	-da-
.	.	2A	Jor-	.	.	.	.
1C	.	1A	-da-	2c	-nis,	1cc	.
.	.	.	.	2e	Jor-	.	.
=23	=23	=23	=23	=23	=23	=23	=23
[0C	-nis	1c	.	1e	-da-	1g	-nis
.	.	[1G	-nis	1c	-nis	2r	.
.	.	.	.	.	.	2g	qui-
=24	=24	=24	=24	=24	=24	=24	=24
1C]	.	1G]	.	2r	.	2g	-a
.	.	.	.	2c	qui-	2g	con-
1r	.	1r	.	2c	-a	1a	-ver-
.	.	.	.	2c	con-	.	.
=25	=25	=25	=25	=25	=25	=25	=25
0r	.	1r	.	1d	-ver-	1f	-sus
.	.	2r	.	1B-y	-sus	[1g	est
.	.	2G	qui-	.	.	.	.
=26	=26	=26	=26	=26	=26	=26	=26
2r	.	2G	-a	0c	est	1g]	.
2C	qui-	2G	con-	.	.	.	.
2C	-a	1A	-ver-	.	.	2r	.
2C	con-	.	.	.	.	2e	re-
=27	=27	=27	=27	=27	=27	=27	=27
1D	-ver-	1F	-sus	2r	.	1f	-tror-
.	.	.	.	2A	re-	.	.
1BB-y	-sus	1G	est	2B-y	-tror-	1d	.
.	.	.	.	2G	.	.	.
=28	=28	=28	=28	=28	=28	=28	=28
2C	est	2G	re-	2c	.	2e	.
2D	.	2.F	-tror-	2.A	.	2.a	.
2.AA	re-	.	.	.	.	.	.
.	.	4G	.	4B-y	.	4g	.
.	.	2A	.	[2c	.	2f	.
4BB-y	.	.	.	.	.	.	.
=29	=29	=29	=29	=29	=29	=29	=29
2C	.	2G	.	4c]	.	2e	.
.	.	.	.	4B-y	.	.	.
2D	.	2F	.	4A	.	1d	.
.	.	.	.	4G	.	.	.
1AA	-tror-	1E	.	1A	.	.	.
.	.	.	.	.	.	2c#i	.
=30	=30	=30	=30	=30	=30	=30	=30
2.D	.	2D	.	2A	.	2d	-sum,
.	.	2d	.	2B-y	.	2b-y	re-
4E	.	.	.	.	.	.	.
2F	.	2c	.	2F	.	2a	-tror-
[2BB-y	.	[2d	.	[2f	.	[2b-y	.
=31	=31	=31	=31	=31	=31	=31	=31
2BB-]	.	2d]	.	2f]	.	2b-]	.
2C	.	4c	.	2e	.	4a	.
.	.	4B-y	.	.	.	4g	.
1D	.	1A	.	1d	.	[1fl	-sum.
=32	=32	=32	=32	=32	=32	=32	=32
00D	-sum.	00A	-sum.	00d	-sum.	00f]	.
=33||	=33||	=33||	=33||	=33||	=33||	=33||	=33||
*M3/1	*	*M3/1	*	*M3/1	*	*M3/1	*
*met(O|)	*	*met(O|)	*	*met(O|)	*	*met(O|)	*
!!section: Versus 7: A facie Domini
!!!OMD: Versus 7: A facie Domini
1A	A	1r	.	1r	.	0.r	.
1c	.	1A	A	1r	.	.	.
[1A	fa-	1c	.	1A	A	.	.
=34	=34	=34	=34	=34	=34	=34	=34
2A]	.	1.A	fa-	1c	.	1a	A
2F	-ci-	.	.	.	.	.	.
2F	-e	.	.	1.A	fa-	1cc	.
1c	Do-	2F	-ci-	.	.	.	.
.	.	2F	-e	.	.	[1a	fa-
2B-y	-mi-	[2c	Do-	2F	-ci-	.	.
=35	=35	=35	=35	=35	=35	=35	=35
1A	-ni,	2c]	.	2F	-e	2a]	.
.	.	2A	-mi-	1c	Do-	2a	-ci-
2r	.	1A	-ni,	.	.	1a	-e
1F	Do-	.	.	2A	-mi-	.	.
.	.	2r	.	1A	-ni,	2r	.
2F	-mi-	[2A	Do-	.	.	[2f	Do-
=36	=36	=36	=36	=36	=36	=36	=36
1F	-ni,	2A]	.	2r	.	2f]	.
.	.	2A	-mi-	1c	Do-	2f	-mi-
2r	.	1A	-ni,	.	.	1f	-ni,
2F	Do-	.	.	2A	-mi-	.	.
2F	-mi-	2r	.	1A	-ni,	2r	.
2F	-ni	[2c	Do-	.	.	[2a	Do-
=37	=37	=37	=37	=37	=37	=37	=37
2r	.	2c]	.	2r	.	2a]	.
2F	mo-	2A	-mi-	1f	Do-	2a	-mi-
2F	-ta	1A	-ni	.	.	2a	-ni
2F	est	.	.	2f	-mi-	2cc	mo-
1G	ter-	1B-y	mo-	2d	-ni	2b-y	-ta
.	.	.	.	2e	mo-	2g	est
=38	=38	=38	=38	=38	=38	=38	=38
1F	.	1A	-ta	2f	-ta	2a	ter-
.	.	.	.	1c	est	4g	.
.	.	.	.	.	.	4f	.
2C	.	2G	est	.	.	2e	.
2D	.	2F	.	2B-y	ter-	1f	.
1C	.	1G	ter-	1c	.	.	.
.	.	.	.	.	.	2e	.
=39	=39	=39	=39	=39	=39	=39	=39
*M3/1	*	*M3/1	*	*M3/1	*	*M3/1	*
*met(3)	*	*met(3)	*	*met(3)	*	*met(3)	*
0D	-ra,	0F	-ra,	0A	-ra,	0f	-ra,
1r	.	1r	.	1r	.	1r	.
=40	=40	=40	=40	=40	=40	=40	=40
1C	a	1G	a	1c	a	1e	a
1C	fa-	1G	fa-	1c	fa-	1e	fa-
1C	-ci-	1G	-ci-	1c	-ci-	1e	-ci-
=41	=41	=41	=41	=41	=41	=41	=41
0F	-e	0A	-e	1A	-e	1c	-e
.	.	.	.	1d	De-	1f	De-
1C	De-	1G	De-	1c	-i	1e	-i
=42	=42	=42	=42	=42	=42	=42	=42
1D	-i	1F	-i	1B-y	Ja-	0d	Ja-
0AA	Ja-	0E	Ja-	0A	.	.	.
.	.	.	.	.	.	1c#i	.
=43	=43	=43	=43	=43	=43	=43	=43
0D	-cob,	0D	-cob,	0A	-cob,	0d	-cob,
1r	.	1r	.	1r	.	1r	.
=44	=44	=44	=44	=44	=44	=44	=44
1E-X	a	1B-y	a	1G	a	1g	a
1E-i	fa-	1B-y	fa-	1G	fa-	1g	fa-
1E-i	-ci-	1B-y	-ci-	1G	-ci-	1g	-ci-
=45	=45	=45	=45	=45	=45	=45	=45
1.C	-e	0c	-e	1A	-e	1e	-e
.	.	.	.	1F	De-	1a	De-
2D	.	.	.	.	.	.	.
1E	De-	1B-y	De-	1G	-i	1g	-i
=46	=46	=46	=46	=46	=46	=46	=46
1F	-i	1A	-i	1A	Ja-	0f	Ja-
0C	Ja-	0G	Ja-	0c	.	.	.
.	.	.	.	.	.	1e	.
=47	=47	=47	=47	=47	=47	=47	=47
00F	-cob,	00F	-cob,	00c	-cob,	00f	-cob,
=48||	=48||	=48||	=48||	=48||	=48||	=48||	=48||
*M2/1	*	*M2/1	*	*M2/1	*	*M2/1	*
*met(C|)	*	*met(C|)	*	*met(C|)	*	*met(C|)	*
!!section: Versus 9: Non nobis, Domine
!!!OMD: Versus 9: Non nobis, Domine
0r	.	1G	Non	1r	.	0r	.
.	.	1B-y	.	1d	Non	.	.
=49	=49	=49	=49	=49	=49	=49	=49
1D	Non	1A	no-	1f	.	0r	.
1F	.	2A	-bis,	1d	no-	.	.
.	.	[2A	Do-	.	.	.	.
=50	=50	=50	=50	=50	=50	=50	=50
1D	no-	2A]	.	2d	-bis,	0r	.
.	.	2A	-mi-	2.d	Do-	.	.
2D	-bis,	1B-y	-ne,	.	.	.	.
.	.	.	.	4e	-mi-	.	.
[2D	Do-	.	.	[2f	-ne,	.	.
=51	=51	=51	=51	=51	=51	=51	=51
2D]	.	2A	non	2f]	.	0r	.
2D	-mi-	1B-y	no-	2B-y	non	.	.
1E-X	-ne,	.	.	2e-X	no-	.	.
.	.	2G	.	2c	.	.	.
=52	=52	=52	=52	=52	=52	=52	=52
1D	non	2A	.	2d	.	0r	.
.	.	4G	.	4c	.	.	.
.	.	4F	.	4B-y	.	.	.
2C	no-	2E	.	2A	.	.	.
2BB-y	.	[2F	.	[2B-y	.	.	.
=53	=53	=53	=53	=53	=53	=53	=53
1C	.	2F]	.	2B-]	.	1r	.
.	.	2E	.	2A	.	.	.
1BB-y	-bis	1F	-bis	2B-y	-bis	2r	.
.	.	.	.	2d	sed	2a	… sed
=54	=54	=54	=54	=54	=54	=54	=54
2r	.	2r	.	1.f	no-	1.a	no-
2F	sed	2c	sed	.	.	.	.
[1F	no-	[1c	no-	.	.	.	.
.	.	.	.	2f	-mi-	2a	-mi-
=55	=55	=55	=55	=55	=55	=55	=55
2F]	.	2c]	.	1f	-ni	2.a	-ni
2F	-mi-	2c	-mi-	.	.	.	.
.	.	.	.	.	.	4b-y	.
1F	-ni	1c	-ni	2r	.	1cc	tu-
.	.	.	.	2f	tu-	.	.
=56	=56	=56	=56	=56	=56	=56	=56
1G	tu-	1B-y	tu-	2.d	-o	1g	-o
.	.	.	.	4e	.	.	.
1F	-o	1c	-o	1f	.	2cc	da
.	.	.	.	.	.	[2ff	glo-
=57	=57	=57	=57	=57	=57	=57	=57
1D	da	2d	da	2.F	da	4ff]	.
.	.	.	.	.	.	4ee	.
.	.	1f	glo-	.	.	1dd	.
.	.	.	.	4G	.	.	.
[1F	glo-	.	.	4A	.	.	.
.	.	.	.	4B-y	.	.	.
.	.	4e	.	[2c	glo-	4cc	.
.	.	4d	.	.	.	4b-y	.
=58	=58	=58	=58	=58	=58	=58	=58
2F]	.	2c	.	4c]	.	2.a	.
.	.	.	.	4B-y	.	.	.
2F	-ri-	1d	.	1A	.	.	.
.	.	.	.	.	.	8gL	.
.	.	.	.	.	.	8fJ	.
1E	.	.	.	.	.	2g	.
.	.	2c#i	-ri-	2G	-ri-	2g	-ri-
=59	=59	=59	=59	=59	=59	=59	=59
1D	.	1.d	-am	1A	-am,	[0fl	-am
[1Dl	-am	.	.	2F	.	.	.
.	.	4c	.	[2f	glo-	.	.
.	.	4B-y	.	.	.	.	.
=60	=60	=60	=60	=60	=60	=60	=60
0D_	.	[0Al	.	4f]	.	0f_	.
.	.	.	.	4e	.	.	.
.	.	.	.	4d	.	.	.
.	.	.	.	4c	.	.	.
.	.	.	.	2d	.	.	.
.	.	.	.	2d	-ri-	.	.
=61	=61	=61	=61	=61	=61	=61	=61
00D]	.	00A]	.	00d	-am	00f]	.
=62||	=62||	=62||	=62||	=62||	=62||	=62||	=62||
*M2/1	*	*M2/1	*	*M2/1	*	*M2/1	*
*met(C|)	*	*met(C|)	*	*met(C|)	*	*met(C|)	*
!!section: Versus 11: Deus autem
!!!OMD: Versus 11: Deus autem
0r	.	0r	.	1r	.	2.f	De-
.	.	.	.	.	.	4g	.
.	.	.	.	2.d	De-	2a	-us
.	.	.	.	.	.	[2f	au-
.	.	.	.	4e	.	.	.
=63	=63	=63	=63	=63	=63	=63	=63
2.D	De-	1r	.	2f	-us	4f]	.
.	.	.	.	.	.	4g	.
.	.	.	.	2.d	au-	1a	-tem
4E	.	.	.	.	.	.	.
2F	-us	[1A	De-	.	.	.	.
.	.	.	.	4e	.	.	.
[2D	au-	.	.	[2f	-tem	2a	no-
=64	=64	=64	=64	=64	=64	=64	=64
4D]	.	2A]	.	2f]	.	2.a	-ster
4E	.	.	.	.	.	.	.
2.F	-tem	2A	-us	2f	no-	.	.
.	.	.	.	.	.	4b-y	.
.	.	2A	au-	2c	-ster	2cc	.
4G	.	.	.	.	.	.	.
2F	.	2A	-tem	[2d	in	2f	in
=65	=65	=65	=65	=65	=65	=65	=65
1G	no-	1B-y	no-	4d]	.	2b-y	cae-
.	.	.	.	4c	.	.	.
.	.	.	.	4d	.	2g	.
.	.	.	.	4e	.	.	.
1F	-ster	1A	-ster	2f	.	2a	.
.	.	.	.	[2c	cae-	4g	.
.	.	.	.	.	.	4f	.
=66	=66	=66	=66	=66	=66	=66	=66
2C	in	2G	in	2c]	.	2e	.
2D	.	2F	.	2B-y	.	1f	.
1C	cae-	1G	cae-	1c	.	.	.
.	.	.	.	.	.	2e	.
=67	=67	=67	=67	=67	=67	=67	=67
0FF	-lo;	1F	-lo;	2A	.	2f	.
.	.	.	.	1c	.	1a	.
.	.	1r	.	.	.	.	.
.	.	.	.	4B-y	.	4g	.
.	.	.	.	4A	.	4f	.
=68	=68	=68	=68	=68	=68	=68	=68
1r	.	1.G	o-	2G	-lo;	1e	-lo;
.	.	.	.	1c	o-	.	.
[1C	o-	.	.	.	.	2r	.
.	.	2G	-mni-	2c	-mni-	[2e	o-
=69	=69	=69	=69	=69	=69	=69	=69
2C]	.	1G	-a	1c	-a	2e]	.
2C	-mni-	.	.	.	.	2e	-mni-
1C	-a	1G	quae-	2G	quae-	2g	-a
.	.	.	.	[2c	-cun-	[2e	quae-
=70	=70	=70	=70	=70	=70	=70	=70
1C	quae-	1A	-cun-	4c]	.	4e]	.
.	.	.	.	4B-y	.	4d	.
.	.	.	.	2c	.	2e	.
1D	-cun-	1F	-que,	1A	-que,	1f	-cun-
=71	=71	=71	=71	=71	=71	=71	=71
1BB-y	-que,	2r	.	2r	.	1d	-que,
.	.	1G	o-	1d	o-	.	.
2r	.	.	.	.	.	2r	.
[2C	o-	2G	-mni-	2c	-mni-	[2e	o-
=72	=72	=72	=72	=72	=72	=72	=72
2C]	.	2G	-a	2c	-a	2e]	.
2C	-mni-	2G	quae-	2c	quae-	2e	-mni-
2C	-a	1A	-cun-	1c	-cun-	2e	-a
2C	quae-	.	.	.	.	2e	quae-
=73	=73	=73	=73	=73	=73	=73	=73
1D	-cun-	1F	-que	1A	-que	1f	-cun-
2BB-y	-que	1r	.	2r	.	2d	-que
[2C	vo-	.	.	[2c	vo-	[2g	vo-
=74	=74	=74	=74	=74	=74	=74	=74
2C]	.	2r	.	2c]	.	2g]	.
2C	-lu-	2G	vo-	2c	-lu-	2g	-lu-
2C	-it	2G	-lu-	2G	-it	2e	-it
[2BB-y	fe-	2D	-it	[2B-y	fe-	[2f	fe-
=75	=75	=75	=75	=75	=75	=75	=75
4BB-]	.	1F	fe-	2B-]	.	4f]	.
4C	.	.	.	.	.	4e	.
2D	.	.	.	4A	.	1d	.
.	.	.	.	4G	.	.	.
1AA	.	1E	.	1A	.	.	.
.	.	.	.	.	.	2c#i	.
=76	=76	=76	=76	=76	=76	=76	=76
00D	-cit.	00D	-cit.	00A	-cit.	00d	-cit.
=77||	=77||	=77||	=77||	=77||	=77||	=77||	=77||
*M2/1	*	*M2/1	*	*M2/1	*	*M2/1	*
*met(C|)	*	*met(C|)	*	*met(C|)	*	*met(C|)	*
!!section: Versus 12: Simulacra Gentium
!!!OMD: Versus 12: Simulacra Gentium
0r	.	1r	.	0r	.	1a	Si-
.	.	1A	Si-	.	.	1cc	.
=78	=78	=78	=78	=78	=78	=78	=78
0r	.	1c	.	1A	Si-	1a	-mu-
.	.	1A	-mu-	1c	.	1a	-la-
=79	=79	=79	=79	=79	=79	=79	=79
1D	Si-	1A	-la-	2A	-mu-	2a	-cra
.	.	.	.	1f	-la-	1a	Gen-
1F	.	2A	-cra	.	.	.	.
.	.	[2A	Gen-	2f	-cra	2a	-ti-
=80	=80	=80	=80	=80	=80	=80	=80
2D	-mu-	2A]	.	1.f	Gen-	1a	-um
1D	-la-	2A	-ti-	.	.	.	.
.	.	[1A	-um	.	.	1r	.
2D	-cra	.	.	2d	-ti-	.	.
=81	=81	=81	=81	=81	=81	=81	=81
4D	Gen-	1A]	.	1f	-um	2r	.
4E	.	.	.	.	.	.	.
4F	.	.	.	.	.	2a	ar-
4D	.	.	.	.	.	.	.
2G	.	1r	.	2r	.	1b-y	-gen-
2G	-ti-	.	.	2e	ar-	.	.
=82	=82	=82	=82	=82	=82	=82	=82
1D	-um	2r	.	1f	-gen-	2a	-tum
.	.	2A	ar-	.	.	2a	et
2r	.	1B-y	-gen-	2e	-tum	1g	au-
2E	ar-	.	.	2e	et	.	.
=83	=83	=83	=83	=83	=83	=83	=83
1F	-gen-	2A	-tum	1d	au-	2f	.
.	.	2A	et	.	.	1f	.
2E	-tum	1G	au-	2c	.	.	.
2E	et	.	.	[2c	.	2e	.
=84	=84	=84	=84	=84	=84	=84	=84
1D	au-	1F	-rum,	2c]	.	1f	-rum,
.	.	.	.	2BnXi	.	.	.
1C	-rum,	1r	.	1c	-rum,	2r	.
.	.	.	.	.	.	2a	ar-
=85	=85	=85	=85	=85	=85	=85	=85
0r	.	1r	.	2r	.	1b-y	-gen-
.	.	.	.	2e	ar-	.	.
.	.	2r	.	1f	-gen-	2a	-tum
.	.	2A	ar-	.	.	2a	et
=86	=86	=86	=86	=86	=86	=86	=86
2r	.	1B-y	-gen-	2e	-tum	1g	au-
2E	ar-	.	.	2e	et	.	.
1F	-gen-	2A	-tum	1d	au-	2f	.
.	.	2A	et	.	.	[2f	.
=87	=87	=87	=87	=87	=87	=87	=87
2E	-tum	1G	au-	2c	.	2f]	.
2E	et	.	.	1c	.	2e	.
1D	au-	1F	-rum,	.	.	1f	-rum,
.	.	.	.	2BnXi	.	.	.
=88	=88	=88	=88	=88	=88	=88	=88
1C	-rum,	2r	.	1c	-rum,	1r	.
.	.	1A	o-	.	.	.	.
2r	.	.	.	2r	.	1a	o-
[2C	o-	[2c	.	[2e	o-	.	.
=89	=89	=89	=89	=89	=89	=89	=89
2C]	.	2c]	.	2e]	.	1cc	.
2C	-pe-	2G	-pe-	2e	-pe-	.	.
1C	-ra,	1G	-ra,	1e	-ra,	2g	-pe-
.	.	.	.	.	.	2g	-ra
=90	=90	=90	=90	=90	=90	=90	=90
2r	.	1r	.	2r	.	2a	ma-
1G	o-	.	.	1d	o-	2g	-nu-
.	.	2r	.	.	.	2d	-um
2F	-pe-	[2A	ma-	2d	-pe-	[2f	ho-
=91	=91	=91	=91	=91	=91	=91	=91
2D	-ra	2A]	.	2d	-ra	2f]	.
2E	ma-	2G	-nu-	2c	ma-	2e	.
2.F	-nu-	2D	-um	2.A	-nu-	2.d	.
.	.	[2F	ho-	.	.	.	.
4E	.	.	.	4G	.	4c	.
=92	=92	=92	=92	=92	=92	=92	=92
2D	-um	4F]	.	4A	.	4d	.
.	.	4G	.	4B-y	.	4e	.
2AA	ho-	2A	.	2.c	-um	2f	.
2C	.	2G	.	.	.	2e	.
.	.	.	.	4B-y	.	.	.
2D	.	2F	.	4A	.	[2d	.
.	.	.	.	4G	.	.	.
=93	=93	=93	=93	=93	=93	=93	=93
1AA	-mi-	1E	-mi-	2A	ho-	2d]	.
.	.	.	.	2A	-mi-	2c#i	-mi-
[1Dl	-num.	[1Dl	-num.	[1Al	-num.	[1dl	-num.
=94	=94	=94	=94	=94	=94	=94	=94
00D]	.	00D]	.	00A]	.	00d]	.
=95||	=95||	=95||	=95||	=95||	=95||	=95||	=95||
*M3/1	*	*M3/1	*	*M3/1	*	*M3/1	*
*met(C|3)	*	*met(C|3)	*	*met(C|3)	*	*met(C|3)	*
!!section: Versus 14: Aures habent
!!!OMD: Versus 14: Aures habent
0F	Au-	0c	Au-	0f	Au-	1a	Au-
.	.	.	.	.	.	1cc	.
1F	-res	1c	-res	1f	-res	1a	-res
=96	=96	=96	=96	=96	=96	=96	=96
1F	ha-	1d	ha-	1f	ha-	1a	ha-
1F	-bent	1c	-bent	1f	-bent	1a	-bent
1G	et	1B-y	et	1d	et	1b-y	et
=97	=97	=97	=97	=97	=97	=97	=97
1F	non	0c	non	1f	non	1a	non
1C	.	.	.	1.e	.	1.g	au-
1E	au-	1B-y	au-	.	.	.	.
.	.	.	.	2d	.	2f	.
=98	=98	=98	=98	=98	=98	=98	=98
1F	.	1A	.	1.c	au-	0f	.
0C	-di-	0G	-di-	.	.	.	.
.	.	.	.	2B-y	.	.	.
.	.	.	.	1c	-di-	1e	-di-
=99	=99	=99	=99	=99	=99	=99	=99
0D	-ent;	0F	-ent;	0A	-ent;	0f	-ent;
1r	.	1r	.	1r	.	1r	.
=100	=100	=100	=100	=100	=100	=100	=100
0G	na-	0B-y	na-	0d	na-	0g	na-
1G	-res	1B-y	-res	1e	-res	1g	-res
=101	=101	=101	=101	=101	=101	=101	=101
1.E	ha-	1c	ha-	1e	ha-	1g	ha-
.	.	1c	-bent	1e	-bent	1g	-bent
2F	.	.	.	.	.	.	.
1G	-bent	1B-y	et	1d	et	1g	et
=102	=102	=102	=102	=102	=102	=102	=102
1F	et	1A	non	2f	non	1a	non
.	.	.	.	2e	.	.	.
1.BB-y	non	1B-y	o-	2d	.	1g	o-
.	.	.	.	2c	.	.	.
.	.	[1F	-do-	1B-y	o-	1d	-do-
2AA	.	.	.	.	.	.	.
=103	=103	=103	=103	=103	=103	=103	=103
1BB-y	.	2F]	.	1d	-do-	1f	-ra-
.	.	2G	.	.	.	.	.
0C	o-	1A	.	1.c	.	1.e	.
.	.	1G	.	.	.	.	.
.	.	.	.	2B-y	.	2d	.
=104	=104	=104	=104	=104	=104	=104	=104
1D	-do-	1F	.	2A	.	0d	.
.	.	.	.	2G	.	.	.
0AA	-ra-	0E	-ra-	0A	-ra-	.	.
.	.	.	.	.	.	1c#i	.
=105	=105	=105	=105	=105	=105	=105	=105
00D	-bunt.	00D	-bunt.	00A	-bunt.	00d	-bunt.
=106||	=106||	=106||	=106||	=106||	=106||	=106||	=106||
*M2/1	*	*M2/1	*	*M2/1	*	*M2/1	*
*met(C|)	*	*met(C|)	*	*met(C|)	*	*met(C|)	*
!!section: Versus 17: Dominus Israel
!!!OMD: Versus 17: Dominus Israel
0r	.	1r	.	0r	.	1a	Do-
.	.	1A	Do-	.	.	1cc	.
=107	=107	=107	=107	=107	=107	=107	=107
0r	.	1c	.	1A	Do-	2a	-mus
.	.	.	.	.	.	1a	Is-
.	.	2A	-mus	1c	.	.	.
.	.	[2A	Is-	.	.	2a	-ra-
=108	=108	=108	=108	=108	=108	=108	=108
1D	Do-	2A]	.	2A	-mus	1a	-el
.	.	2A	-ra-	1f	Is-	.	.
1F	.	[1A	-el	.	.	1r	.
.	.	.	.	2f	-ra-	.	.
=109	=109	=109	=109	=109	=109	=109	=109
1D	-mus	1A]	.	1f	-el	2r	.
.	.	.	.	.	.	2a	spe-
2G	Is-	1r	.	2r	.	1b-y	-ra-
2G	-ra-	.	.	2e	spe-	.	.
=110	=110	=110	=110	=110	=110	=110	=110
1D	-el	2r	.	1f	-ra-	2a	-vit
.	.	2A	spe-	.	.	2a	in
2r	.	1B-y	-ra-	2e	-vit	1g	Do-
2E	spe-	.	.	2e	in	.	.
=111	=111	=111	=111	=111	=111	=111	=111
1F	-ra-	2A	-vit	1d	Do-	2f	.
.	.	2A	in	.	.	1f	.
2E	-vit	2G	Do-	2c	.	.	.
2E	in	2G	-mi-	[2c	.	2e	-mi-
=112	=112	=112	=112	=112	=112	=112	=112
2D	Do-	1F	-no;	2c]	.	1f	-no;
2D	-mi-	.	.	2BnXi	-mi-	.	.
1C	-no;	1r	.	1c	-no;	1r	.
=113	=113	=113	=113	=113	=113	=113	=113
1r	.	1.G	ad-	2r	.	1.e	ad-
.	.	.	.	1c	ad-	.	.
[1C	ad-	.	.	.	.	.	.
.	.	2G	-iu-	2c	-iu-	2e	-iu-
=114	=114	=114	=114	=114	=114	=114	=114
2C]	.	1G	-tor	1c	-tor	2e	-tor
2C	-iu-	.	.	.	.	2e	e-
1C	-tor	1G	e-	2G	e-	2g	.
.	.	.	.	[2c	-o-	[2e	-o-
=115	=115	=115	=115	=115	=115	=115	=115
1C	e-	1A	-o-	4c]	.	4e]	.
.	.	.	.	4B-y	.	4d	.
.	.	.	.	2c	.	2e	.
1D	-o-	1F	-rum	2A	-rum	2f	-rum
.	.	.	.	[2B-y	et	[2d	et
=116	=116	=116	=116	=116	=116	=116	=116
1BB-y	-rum	1.G	et	4B-]	.	4d]	.
.	.	.	.	4A	.	4c	.
.	.	.	.	2B-y	.	1d	.
[1C	et	.	.	2G	pro-	.	.
.	.	2G	pro-	2c	-te-	2e	pro-
=117	=117	=117	=117	=117	=117	=117	=117
2C]	.	2A	-te-	4c	.	2f	-te-
.	.	.	.	4d	.	.	.
2C	pro-	2G	-ctor	2c	.	2g	.
1D	-te-	2D	e-	2A	-ctor	2f	-ctor
.	.	[2F	-o-	[2A	e-	[2a	e-
=118	=118	=118	=118	=118	=118	=118	=118
2.AA	-ctor	4F]	.	4A]	.	4a]	.
.	.	4G	.	4B-y	.	4g	.
.	.	2A	.	2.c	-o-	2f	-o-
4BB-y	.	.	.	.	.	.	.
2C	e-	2G	.	.	.	2e	.
.	.	.	.	4B-y	.	.	.
2D	-o-	2F	.	4A	.	[2d	.
.	.	.	.	4G	.	.	.
=119	=119	=119	=119	=119	=119	=119	=119
1AA	-rum	1E	-rum	2A	.	2d]	.
.	.	.	.	2A	-rum	2c#i	-rum
[1Dl	est.	[1Dl	est.	[1Al	est.	[1dl	est.
=120	=120	=120	=120	=120	=120	=120	=120
00D]	.	00D]	.	00A]	.	00d]	.
=121||	=121||	=121||	=121||	=121||	=121||	=121||	=121||
*M2/1	*	*M2/1	*	*M2/1	*	*M2/1	*
*met(C|)	*	*met(C|)	*	*met(C|)	*	*met(C|)	*
!!section: Versus 19: Qui timent Dominum
!!!OMD: Versus 19: Qui timent Dominum
0r	.	1r	.	0r	.	1a	Qui
.	.	1A	Qui	.	.	1cc	.
=122	=122	=122	=122	=122	=122	=122	=122
0r	.	1c	.	1A	Qui	1.a	ti-
.	.	[1A	ti-	1c	.	.	.
.	.	.	.	.	.	2a	-ment
=123	=123	=123	=123	=123	=123	=123	=123
1D	Qui	2A]	.	2A	.	1.a	Do-
.	.	2A	-ment	1f	ti-	.	.
1F	.	[1A	Do-	.	.	.	.
.	.	.	.	2f	-ment	2a	-mi-
=124	=124	=124	=124	=124	=124	=124	=124
1D	ti-	2A]	.	1.f	Do-	0a	-num
.	.	2A	-mi-	.	.	.	.
2D	-ment	[1A	-num	.	.	.	.
[2D	Do-	.	.	2d	-mi-	.	.
=125	=125	=125	=125	=125	=125	=125	=125
2D]	.	0A]	.	1f	-num	1r	.
2D	-mi-	.	.	.	.	.	.
1D	-num	.	.	1r	.	2a	spe-
.	.	.	.	.	.	2a	-ra-
=126	=126	=126	=126	=126	=126	=126	=126
0r	.	1r	.	2e	spe-	1b-y	-ve-
.	.	.	.	2e	-ra-	.	.
.	.	2A	spe-	1f	-ve-	2a	-runt
.	.	2A	-ra-	.	.	2a	in
=127	=127	=127	=127	=127	=127	=127	=127
2E	spe-	1B-y	-ve-	2e	-runt	1g	Do-
2E	-ra-	.	.	2e	in	.	.
1F	-ve-	2A	-runt	1d	Do-	2f	.
.	.	2A	in	.	.	[2f	.
=128	=128	=128	=128	=128	=128	=128	=128
2E	-runt	2G	Do-	2c	.	2f]	.
2E	in	2G	-mi-	1c	.	2e	-mi-
2D	Do-	1F	-no;	.	.	1f	-no;
2D	-mi-	.	.	2BnXi	-mi-	.	.
=129	=129	=129	=129	=129	=129	=129	=129
1C	-no;	1r	.	1c	-no;	1r	.
1r	.	[1G	ad-	2r	.	[1e	ad-
.	.	.	.	[2c	ad-	.	.
=130	=130	=130	=130	=130	=130	=130	=130
1.C	ad-	2G]	.	2c]	.	2e]	.
.	.	2G	-iu-	2c	-iu-	2e	-iu-
.	.	1G	-tor	1c	-tor	2e	-tor
2C	-iu-	.	.	.	.	2e	e-
=131	=131	=131	=131	=131	=131	=131	=131
1C	-tor	1G	e-	2G	e-	2g	-o-
.	.	.	.	2.c	-o-	2.e	-rum
1C	e-	1A	-o-	.	.	.	.
.	.	.	.	4B-y	.	4d	.
.	.	.	.	2c	-rum	2e	et
=132	=132	=132	=132	=132	=132	=132	=132
1D	-o-	1F	-rum	2A	et	2f	pro-
.	.	.	.	2.B-y	pro-	2.d	-te-
1BB-y	-rum	[1G	et	.	.	.	.
.	.	.	.	4A	.	4c	.
.	.	.	.	2B-y	-te-	[2d	-ctor
=133	=133	=133	=133	=133	=133	=133	=133
1.C	et	2G]	.	2G	.	2d]	.
.	.	2G	pro-	2.c	-ctor	2e	e-
.	.	2A	-te-	.	.	2f	-o-
.	.	.	.	4d	.	.	.
2C	pro-	2G	-ctor	2c	.	2g	.
=134	=134	=134	=134	=134	=134	=134	=134
2D	-te-	2D	e-	2A	e-	2f	.
2D	-ctor	2.F	-o-	2.A	-o-	2.a	.
2.AA	e-	.	.	.	.	.	.
.	.	4G	.	4B-y	.	4g	.
.	.	2A	.	[2c	.	2f	.
4BB-y	.	.	.	.	.	.	.
=135	=135	=135	=135	=135	=135	=135	=135
2C	-o-	2G	.	4c]	.	2e	.
.	.	.	.	4B-y	.	.	.
2D	.	2F	.	4A	.	1d	.
.	.	.	.	4G	.	.	.
1AA	-rum	1E	-rum	1A	-rum	.	.
.	.	.	.	.	.	2c#i	-rum
=136	=136	=136	=136	=136	=136	=136	=136
00D	est.	00D	est.	00A	est.	00d	est.
=137||	=137||	=137||	=137||	=137||	=137||	=137||	=137||
*M2/1	*	*M2/1	*	*M2/1	*	*M2/1	*
*met(C|)	*	*met(C|)	*	*met(C|)	*	*met(C|)	*
!!section: Versus 27: Sed nos qui viviumus
!!!OMD: Versus 27: Sed nos qui viviumus
1D	sed	0r	.	1r	.	0r	.
1F	.	.	.	1d	sed	.	.
=138	=138	=138	=138	=138	=138	=138	=138
0F	nos	1A	sed	1f	.	1r	.
.	.	1c	.	1f	nos	1a	sed
=139	=139	=139	=139	=139	=139	=139	=139
2F	qui	1A	nos	2c	qui	1cc	.
1F	vi-	.	.	1f	vi-	.	.
.	.	2c	qui	.	.	1a	nos
2F	-vi-	[2c	vi-	[2f	-vi-	.	.
=140	=140	=140	=140	=140	=140	=140	=140
1F	-mus	2c]	.	2f]	.	2a	qui
.	.	2c	-vi-	2.F	.	1a	vi-
1r	.	1c	-mus	.	.	.	.
.	.	.	.	4G	.	.	.
.	.	.	.	4A	.	2a	-vi-
.	.	.	.	4B-y	.	.	.
=141	=141	=141	=141	=141	=141	=141	=141
2r	.	2r	.	2c	-mus	2a	-mus
1D	be-	1A	be-	1d	be-	1f	be-
2D	-ne-	2A	-ne-	2d	-ne-	2f	-ne-
=142	=142	=142	=142	=142	=142	=142	=142
1G	-di-	1B-y	-di-	1d	-di-	1g	-di-
2D	-ci-	2A	-ci-	2d	-ci-	2f	-ci-
2D	-mus	2A	-mus	2d	-mus	2f	-mus
=143	=143	=143	=143	=143	=143	=143	=143
2r	.	2r	.	2r	.	2r	.
1G	Do-	1B-y	Do-	2.d	Do-	1b-y	Do-
.	.	.	.	4e	.	.	.
4F	.	2c	.	4f	.	[2a	.
4E	.	.	.	4g	.	.	.
=144	=144	=144	=144	=144	=144	=144	=144
2D	.	2d	.	1f	.	4a]	.
.	.	.	.	.	.	4b-y	.
2F	.	1c	.	.	.	2cc	.
2G	.	.	.	2.d	-mi-	2b-y	.
2G	-mi-	2B-y	-mi-	.	.	2b-y	-mi-
.	.	.	.	4e	.	.	.
=145	=145	=145	=145	=145	=145	=145	=145
1F	-no,	1c	-no,	1f	-no,	1a	-no,
1r	.	1r	.	1r	.	1r	.
=146	=146	=146	=146	=146	=146	=146	=146
1F	ex	1c	ex	1f	ex	1a	ex
2F	hoc	2c	hoc	2f	hoc	2a	hoc
[2F	nunc	[2c	nunc	[2f	nunc	[2a	nunc
=147	=147	=147	=147	=147	=147	=147	=147
2F]	.	2c]	.	2f]	.	2a]	.
2F	et	2c	et	2f	et	2a	et
2.D	us-	1d	us-	1B-y	us-	2.f	us-
4E	.	.	.	.	.	4g	.
=148	=148	=148	=148	=148	=148	=148	=148
2F	-que	2c	-que	2A	-que	2a	-que
2G	in	2G	in	2d	in	2b-y	in
2G	sae-	[1B-y	sae-	2d	sae-	2b-y	sae-
4F	.	.	.	2d	-cu-	4a	.
4E	.	.	.	.	.	4g	.
=149	=149	=149	=149	=149	=149	=149	=149
2D	.	2B-]	.	1d	-lum,	2f	.
2E	.	2B-y	-cu-	.	.	2g	-cu-
2F	.	[1A	-lum.	2r	.	1f	-lum,
[2D	.	.	.	2d	in	.	.
=150	=150	=150	=150	=150	=150	=150	=150
2D]	.	0A_	.	2d	sae-	2r	.
2.C	-cu-	.	.	2A	-cu-	1e	in
.	.	.	.	1c	-lum,	.	.
4AA	.	.	.	.	.	.	.
[2AA	.	.	.	.	.	2e	sae-
=151	=151	=151	=151	=151	=151	=151	=151
4AA]	.	1A]	.	2r	.	2c	-cu-
4GG	.	.	.	.	.	.	.
4AA	.	.	.	2e	in	2c	-lum,
4BB-y	.	.	.	.	.	.	.
[1Cl	-lum.	[1Gl	.	2.e	sae-	2cc	in
.	.	.	.	.	.	2cc	sae-
.	.	.	.	4d	.	.	.
=152	=152	=152	=152	=152	=152	=152	=152
0C_	.	0G_	.	4c	.	2g	-cu-
.	.	.	.	4B-y	.	.	.
.	.	.	.	2c	.	2g	-lum,
.	.	.	.	2c	-cu-	2e	in
.	.	.	.	2c	-lum,	[2g	sae-
=153	=153	=153	=153	=153	=153	=153	=153
0C_	.	0G_	.	2e	in	4g]	.
.	.	.	.	.	.	4f	.
.	.	.	.	2.g	sae-	4e	.
.	.	.	.	.	.	4d	.
.	.	.	.	.	.	2e	.
.	.	.	.	4f	.	.	.
.	.	.	.	4e	.	2e	-cu-
.	.	.	.	4d	.	.	.
=154	=154	=154	=154	=154	=154	=154	=154
0C_	.	0G_	.	2c	.	[0el	-lum.
.	.	.	.	2c	-cu-	.	.
.	.	.	.	[1cl	-lum.	.	.
=155	=155	=155	=155	=155	=155	=155	=155
00C]	.	00G]	.	00c]	.	00e]	.
=156||	=156||	=156||	=156||	=156||	=156||	=156||	=156||
*M2/1	*	*M2/1	*	*M2/1	*	*M2/1	*
*met(C|)	*	*met(C|)	*	*met(C|)	*	*met(C|)	*
!!section: Versus 29: Sicut erat
!!!OMD: Versus 29: Sicut erat
0r	.	0r	.	1r	.	1a	Sic-
.	.	.	.	1A	Sic-	1cc	.
=157	=157	=157	=157	=157	=157	=157	=157
0r	.	1A	Sic-	1c	.	2a	-ut
.	.	.	.	.	.	2.cc	e-
.	.	1c	.	2A	-ut	.	.
.	.	.	.	.	.	4b-y	.
.	.	.	.	[2f	e-	[2a	.
=158	=158	=158	=158	=158	=158	=158	=158
0r	.	1A	-ut	2f]	.	2a]	.
.	.	.	.	4e	.	4g	.
.	.	.	.	4d	.	4f	.
.	.	2r	.	1e	.	1g	.
.	.	[2c	e-	.	.	.	.
=159	=159	=159	=159	=159	=159	=159	=159
2r	.	4c]	.	1f	-rat	1a	-rat
.	.	4B-y	.	.	.	.	.
1F	…e-	1A	.	.	.	.	.
.	.	.	.	1r	.	1r	.
4E	.	4G	.	.	.	.	.
4D	.	4F	.	.	.	.	.
=160	=160	=160	=160	=160	=160	=160	=160
1E	.	1G	.	1r	.	1r	.
2D	-rat	[1A	-rat	2r	.	2r	.
[2F	in	.	.	[2f	in	[2a	in
=161	=161	=161	=161	=161	=161	=161	=161
2F]	.	1A]	.	2f]	.	2a]	.
2F	prin-	.	.	2f	prin-	2a	prin-
2F	-ci-	2r	.	2f	-ci-	2a	-ci-
2F	-pi-	[2c	in	2f	-pi-	2a	-pi-
=162	=162	=162	=162	=162	=162	=162	=162
1F	-o,	2c]	.	1f	-o,	1a	-o,
.	.	2c	prin-	.	.	.	.
2r	.	2c	-ci-	2r	.	2r	.
[2C	in	2c	-pi-	[2e	in	[2cc	in
=163	=163	=163	=163	=163	=163	=163	=163
2C]	.	1c	-o,	2e]	.	2cc]	.
2C	prin-	.	.	2e	prin-	2cc	prin-
2C	-ci-	2r	.	2e	-ci-	2cc	-ci-
2C	-pi-	[2A	in	2e	-pi-	2cc	-pi-
=164	=164	=164	=164	=164	=164	=164	=164
0F	-o,	2A]	.	0c	-o,	1cc	-o,
.	.	2A	prin-	.	.	.	.
.	.	2A	-ci-	.	.	2r	.
.	.	2A	-pi-	.	.	2a	et
=165	=165	=165	=165	=165	=165	=165	=165
0r	.	1G	-o,	2r	.	1b-y	nunc,
.	.	.	.	2e	et	.	.
.	.	2r	.	1f	nunc,	1a	et
.	.	2A	et	.	.	.	.
=166	=166	=166	=166	=166	=166	=166	=166
2r	.	1B-y	nunc,	1e	et	1g	sem-
2E	et	.	.	.	.	.	.
1F	nunc,	1A	et	1d	sem-	2f	.
.	.	.	.	.	.	[2f	.
=167	=167	=167	=167	=167	=167	=167	=167
1E	et	1G	sem-	2c	.	2f]	.
.	.	.	.	1c	.	2e	.
1D	sem-	1F	-per,	.	.	1f	-per,
.	.	.	.	2BnXi	.	.	.
=168	=168	=168	=168	=168	=168	=168	=168
1C	-per,	0r	.	1c	-per,	2r	.
.	.	.	.	.	.	2a	et
1r	.	.	.	1r	.	1b-y	nunc,
=169	=169	=169	=169	=169	=169	=169	=169
1r	.	1r	.	2r	.	2a	et
.	.	.	.	2e	et	1cc	sem-
2r	.	2r	.	2f	nunc,	.	.
2G	et	2G	et	4e	.	4b-y	.
.	.	.	.	4d	.	4a	.
=170	=170	=170	=170	=170	=170	=170	=170
2G	nunc,	2B-y	nunc,	2d	et	2b-y	.
2C	et	2.c	et	2.e	sem-	2.a	.
2E	sem-	.	.	.	.	.	.
.	.	4B-y	.	4d	.	4g	.
2F	.	2A	.	4c	.	[2f	.
.	.	.	.	4B-y	.	.	.
=171	=171	=171	=171	=171	=171	=171	=171
1C	.	2G	.	1c	.	2f]	.
.	.	2G	sem-	.	.	2e	.
1FF	-per,	1F	-per,	1c	-per,	1f	-per,
=172	=172	=172	=172	=172	=172	=172	=172
3%2F	et	3%2c	et	3%2f	et	3%2a	et
3%2F	nunc,	3%2c	nunc,	3%2f	nunc,	3%2a	nunc,
3%2G	et	3%2B-y	et	3%2d	et	3%2b-y	et
=173	=173	=173	=173	=173	=173	=173	=173
3%2F	sem-	3%4c	sem-	3%2f	sem-	3%4a	sem-
3%2C	.	.	.	3%4e	.	.	.
3%2E	.	3%2B-y	.	.	.	3%2g	.
=174	=174	=174	=174	=174	=174	=174	=174
3%2F	.	3%2A	.	3%2d	.	3%4f	.
3%4C	.	3%4G	.	3%4c	.	.	.
.	.	.	.	.	.	3%2e	.
=175	=175	=175	=175	=175	=175	=175	=175
1FF	-per,	1F	-per,	1c	-per,	1f	-per,
2r	.	2r	.	2r	.	2r	.
[2C	et	[2G	et	[2c	et	[2e	et
=176	=176	=176	=176	=176	=176	=176	=176
2C]	.	2G]	.	2c]	.	2e]	.
2C	in	2G	in	2c	in	2e	in
2C	sae-	2G	sae-	2c	sae-	2e	sae-
2C	-cu-	2G	-cu-	2c	-cu-	2e	-cu-
=177	=177	=177	=177	=177	=177	=177	=177
0C	-la	1G	-la	1c	-la	0e	-la
.	.	2r	.	2r	.	.	.
.	.	[2G	sae-	2c	sae-	.	.
=178	=178	=178	=178	=178	=178	=178	=178
2r	.	2G]	.	2B-y	-cu-	2r	.
1C	sae-	2G	-cu-	2G	.	1e	sae-
.	.	1A	-lo-	1c	-lo-	.	.
2C	-cu-	.	.	.	.	2e	-cu-
=179	=179	=179	=179	=179	=179	=179	=179
1D	-lo-	1F	-rum.	1A	-rum.	1f	-lo-
1GG	-rum.	1G	A-	2r	.	1d	-rum.
.	.	.	.	[2d	A-	.	.
=180	=180	=180	=180	=180	=180	=180	=180
1BB-y	A-	2D	.	4d]	.	2r	.
.	.	.	.	4c	.	.	.
.	.	2.F	.	4B-y	.	2d	A-
.	.	.	.	4A	.	.	.
2.AA	.	.	.	2A	.	4d	.
.	.	4G	.	.	.	4e	.
.	.	2A	.	2F	.	2f	.
4BB-y	.	.	.	.	.	.	.
=181	=181	=181	=181	=181	=181	=181	=181
2C	.	2G	.	2c	.	2e	.
2D	.	2F	.	2B-y	.	1d	.
1AA	-men,	1E	.	1A	-men,	.	.
.	.	.	.	.	.	2c#i	.
=182	=182	=182	=182	=182	=182	=182	=182
2r	.	2D	-men,	2r	.	2.d	.
1D	a-	1d	a-	1f	a-	.	.
.	.	.	.	.	.	4e	.
.	.	.	.	.	.	2f	.
2E	.	4c	.	4e	.	2g	.
.	.	4B-y	.	4d	.	.	.
=183	=183	=183	=183	=183	=183	=183	=183
2F	.	2A	.	1c	.	4a	.
.	.	.	.	.	.	4d	.
2E	.	2G	.	.	.	1g	.
1D	.	1A	.	1d	.	.	.
.	.	.	.	.	.	2f#i	.
=184	=184	=184	=184	=184	=184	=184	=184
2GG	.	[0Gl	-men.	2B-y	.	[0gl	-men.
1C	.	.	.	2c	.	.	.
.	.	.	.	1d	.	.	.
2BBnXi	.	.	.	.	.	.	.
=185	=185	=185	=185	=185	=185	=185	=185
00Cl	-men.	00G]	.	00cl	-men.	00g]	.
==	==	==	==	==	==	==	==
*-	*-	*-	*-	*-	*-	*-	*-
!!!system-decoration: [*]
!!!RDF**kern: i = editorial accidental
!!!RDF**kern: l = terminal long
!!!PTL: <i> New Senfl Edition: Motets for Four Voices (A-I) </i>
!!!PPR: Hollitzer Verlag
!!!PC#: Denkmäler der Tonkunst in Österreich 163.1
!!!PDT: 2021
!!!PED: Scott Lee Edwards, Stefan Gasch, and Sonja Tröster
!!!YEC: Copyright 2021 Denkmäler der Tonkunst in Österreich
!!!YEM: CC-BY-NC 4.0 (https://creativecommons.org/licenses/by-nc/4.0/legalcode)
!!!EED: Benjamin Ory
!!!EEV: 2025/3/11
!!!verovio: header encoded
!!!header-left: @{PTL}\n@{PED}, eds.\n@{PC#} (@{PDT})&nbsp;\n
!!!header-right:
!!!header-center: 